docs/images/icons/quotes.svg

<svg width="49" height="38" viewBox="0 0 49 38" fill="none" xmlns="http://www.w3.org/2000/svg">
<path d="M4.41229 33.911C1.62271 30.9481 0.125 27.625 0.125 22.2381C0.125 12.7589 6.77937 4.26288 16.4562 0.0622559L18.8748 3.79434C9.8425 8.68017 8.07667 15.0204 7.3725 19.0179C8.82687 18.265 10.7308 18.0023 12.5969 18.1756C17.4827 18.6279 21.334 22.6389 21.334 27.625C21.334 30.139 20.3353 32.5501 18.5576 34.3277C16.7799 36.1054 14.3688 37.1041 11.8548 37.1041C8.94875 37.1041 6.17 35.777 4.41229 33.911ZM31.4956 33.911C28.706 30.9481 27.2083 27.625 27.2083 22.2381C27.2083 12.7589 33.8627 4.26288 43.5396 0.0622559L45.9581 3.79434C36.9258 8.68017 35.16 15.0204 34.4558 19.0179C35.9102 18.265 37.8142 18.0023 39.6802 18.1756C44.566 18.6279 48.4173 22.6389 48.4173 27.625C48.4173 30.139 47.4186 32.5501 45.6409 34.3277C43.8632 36.1054 41.4522 37.1041 38.9381 37.1041C36.0321 37.1041 33.2533 35.777 31.4956 33.911Z" fill="#323232"/>
</svg>

<svg width="49" height="38" fill="none" xmlns="http://www.w3.org/2000/svg"><path d="M4.412 33.911C1.622 30.948.125 27.625.125 22.238c0-9.48 6.654-17.975 16.331-22.176l2.419 3.732C9.842 8.68 8.077 15.02 7.372 19.018c1.455-.753 3.359-1.016 5.225-.842 4.886.452 8.737 4.463 8.737 9.449a9.479 9.479 0 0 1-9.48 9.48c-2.905 0-5.684-1.328-7.442-3.194Zm27.084 0c-2.79-2.963-4.288-6.286-4.288-11.673 0-9.48 6.655-17.975 16.332-22.176l2.418 3.732C36.926 8.68 35.16 15.02 34.456 19.018c1.454-.753 3.358-1.016 5.224-.842 4.886.452 8.737 4.463 8.737 9.449a9.479 9.479 0 0 1-9.479 9.48c-2.906 0-5.685-1.328-7.442-3.194Z" fill="#323232"/></svg>
